UI/Tools/SVG/add-road_outline_24px.svg

<svg width="24" height="24" viewBox="0 0 24 24" fill="none" xmlns="http://www.w3.org/2000/svg">
<path d="M9.86 12.71L12.71 9.86L14.14 11.29L11.29 14.14L9.86 12.71ZM11.05 17.26L9.14 19.17L7.7 17.73L9.86 15.57L8.43 14.14L6.27 16.3L4.83 14.86L14.83 4.86L16.3 6.27L14.14 8.43L15.57 9.86L17.73 7.7L19.17 9.14L16.26 12.05C16.5054 12.0184 16.7526 12.0017 17 12C17.6281 11.9979 18.2526 12.0958 18.85 12.29L22 9.14L14.86 2L2 14.86L9.14 22L11.29 19.85C11.0958 19.2526 10.9979 18.6281 11 18C11.0017 17.7526 11.0184 17.5054 11.05 17.26ZM18 14H16V17H13V19H16V22H18V19H21V17H18V14Z" fill="#0F1621"/>
</svg>

<svg xmlns="http://www.w3.org/2000/svg" width="24" height="24" viewBox="0 0 24 24"><path d="M9.86,12.71l2.85-2.85,1.43,1.43-2.85,2.85Zm1.19,4.55L9.14,19.17,7.7,17.73l2.16-2.16L8.43,14.14,6.27,16.3,4.83,14.86l10-10L16.3,6.27,14.14,8.43l1.43,1.43L17.73,7.7l1.44,1.44-2.91,2.91A6.13,6.13,0,0,1,17,12a5.92,5.92,0,0,1,1.85.29L22,9.14,14.86,2,2,14.86,9.14,22l2.15-2.15A5.92,5.92,0,0,1,11,18,6.13,6.13,0,0,1,11.05,17.26ZM18,14H16v3H13v2h3v3h2V19h3V17H18Z"/><rect width="24" height="24" style="fill:none"/></svg>
